Origami/16x16/apps/ocsstore.svg

<svg width="16" height="16" version="1.1" viewBox="0 0 16 16" xmlns="http://www.w3.org/2000/svg">
 <path d="m8 0a8 8 0 0 0 -8 8 8 8 0 0 0 8 8 8 8 0 0 0 8 -8 8 8 0 0 0 -8 -8z" style="fill:#144379"/>
 <path d="m8 1.9999998a6.0000002 6.0000002 0 0 0 -3.9232702 1.4707034l1.5611049 1.5611049c0.070375-0.018571 0.1429388-0.031808 0.2193081-0.031808h4.2857142c0.07637 0 0.148933 0.013239 0.219309 0.031809l1.563615-1.5636169a6.0000002 6.0000002 0 0 0 -3.925781 -1.4681924z" style="fill:#00cea5"/>
 <path d="m3.4681917 4.0742188c-0.9454097 1.0895516-1.4666319 2.4832419-1.4681919 3.9257812 0.00287 1.4419972 0.5249503 2.834732 1.4707034 3.92327l1.5292967-1.529297v-0.251116-4.2857142c0-0.076369 0.013239-0.1489329 0.031809-0.2193081z" style="fill:#d152ac"/>
 <path d="M 12.529297,4.0767298 10.968192,5.6378347 C 10.986763,5.7082099 11,5.7807735 11,5.8571428 l 0,4.2857142 c 0,0.07637 -0.01324,0.148933 -0.03181,0.219309 l 1.563616,1.563615 A 6.0000002,6.0000002 0 0 0 14,8 6.0000002,6.0000002 0 0 0 12.529297,4.0767298 Z" style="fill:#d75950"/>
 <path d="M 10.362166,10.968192 C 10.29179,10.986763 10.219226,11 10.142857,11 l -2.9999999,0 -2.1428572,2.142857 0,-1.53683 -0.9257811,0.925782 A 6.0000002,6.0000002 0 0 0 8,14 6.0000002,6.0000002 0 0 0 11.92327,12.529297 l -1.561104,-1.561105 z" style="fill:#e88a19"/>
</svg>

<svg xmlns="http://www.w3.org/2000/svg" width="16" height="16" version="1.1" viewBox="0 0 16 16">
 <path style="fill:#144379" d="M 8,0 A 8,8 0 0 0 0,8 8,8 0 0 0 8,16 8,8 0 0 0 16,8 8,8 0 0 0 8,0 Z"/>
 <path style="fill:#00cea5" d="M 8,1.9999998 A 6.0000002,6.0000002 0 0 0 4.0767298,3.4707032 l 1.5611049,1.5611049 c 0.070375,-0.018571 0.1429388,-0.031808 0.2193081,-0.031808 l 4.2857142,0 c 0.07637,0 0.148933,0.013239 0.219309,0.031809 L 11.925781,3.4681922 A 6.0000002,6.0000002 0 0 0 8,1.9999998 Z"/>
 <path style="fill:#d152ac" d="M 3.4681917,4.0742188 C 2.522782,5.1637704 2.0015598,6.5574607 1.9999998,8 c 0.00287,1.4419972 0.5249503,2.834732 1.4707034,3.92327 l 1.5292967,-1.529297 0,-0.251116 0,-4.2857142 c 0,-0.076369 0.013239,-0.1489329 0.031809,-0.2193081 z"/>
 <path style="fill:#d75950" d="M 12.529297,4.0767298 10.968192,5.6378347 C 10.986763,5.7082099 11,5.7807735 11,5.8571428 l 0,4.2857142 c 0,0.07637 -0.01324,0.148933 -0.03181,0.219309 l 1.563616,1.563615 A 6.0000002,6.0000002 0 0 0 14,8 6.0000002,6.0000002 0 0 0 12.529297,4.0767298 Z"/>
 <path style="fill:#e88a19" d="M 10.362166,10.968192 C 10.29179,10.986763 10.219226,11 10.142857,11 l -2.9999999,0 -2.1428572,2.142857 0,-1.53683 -0.9257811,0.925782 A 6.0000002,6.0000002 0 0 0 8,14 6.0000002,6.0000002 0 0 0 11.92327,12.529297 l -1.561104,-1.561105 z"/>
</svg>
